src/topics/icons/raml.svg

<svg height="147" preserveAspectRatio="xMidYMid" viewBox="0 0 512 147" width="512" xmlns="http://www.w3.org/2000/svg"><path d="m78.2204706 2.3303813h-78.2204706l7.79948923 12.5192444h69.97909837c8.5469345 0 16.5944902 3.4295774 22.6602964 9.6569741 6.041462 6.2025901 9.368799 14.3822934 9.368799 23.0321639 0 8.4996396-3.183365 16.1537664-9.205122 22.1344877-5.734973 5.6960243-13.727815 9.4411331-22.5191066 10.5546503h-8.564786l-23.6210321-.188716 6.8178878 11.8063429h10.3552698l.5617431.9016175h.0823024l30.6380685 51.7274309.1965985.196599c1.3291265 1.327735 2.994186 1.973404 5.0909276 1.973404 3.587923 0 6.618971-3.132594 6.618971-6.840145 0-1.470779-.479673-2.136849-1.059499-2.797123-.235779-.268469-.529054-.602547-.972328-1.357411l-25.2100489-42.9094782c11.7214903-.2033218 22.6825529-4.8741592 30.9399219-13.2047889 8.440057-8.514709 13.088174-19.8784735 13.088174-31.9968702 0-24.9281339-20.108457-45.2083824-44.8251544-45.2083824zm105.2835994 1.27232617c-1.002235-1.93909185-3.174788-3.14070747-5.690924-3.14070747-2.279894 0-4.548195 1.22897249-5.644325 3.05817319l-.681835 1.18376411c-.895821 1.55540019-.394588 3.81257358.499379 5.3591639l10.710214 18.5305682 40.998206 71.2453968h-1.784687l.055177.0969082h-52.752386l7.624915 13.3188536h54.574632l16.487149 28.53553.039413.065611c1.017768 1.627038 2.721776 4.349741 6.285124 4.349741 3.651446 0 6.621289-2.970074 6.621289-6.620593 0-1.25517-.315299-2.326493-.989947-3.363736zm320.847599 129.36343853h-70.385974v-125.88656617c0-3.64889605-2.967524-6.61757983-6.618971-6.61757983-3.649128 0-6.61897 2.96868378-6.61897 6.61757983v132.50553717c0 3.650519 2.969842 6.620593 6.61897 6.620593h84.653276zm-138.15218-126.04815716c-.08578-3.57424426-3.018529-6.45598884-6.614334-6.45598884-.166923 0-.331528.00811433-.491496.02086541-.164605-.01251925-.32921-.02086541-.496133-.02086541-2.517759 0-4.692398 1.203934-5.693938 3.14673525l-43.703755 76.81622865-43.706073-76.81646049c-.999221-1.94280125-3.17386-3.14650341-5.693938-3.14650341-2.278966 0-4.54634 1.22897249-5.642933 3.05817319l-.681603 1.18399594c-.892576 1.55029976-.403398 3.80631396.479904 5.35429537l48.732318 85.5015703.046367.0769702c1.01545 1.6270381 2.719459 4.3497419 6.282806 4.3497419.062597 0 .122875-.0027821.183152-.0046368.060278.0018547.120556.0046368.183152.0046368 3.563348 0 5.265038-2.7227038 6.282806-4.3497419l37.300393-65.439945v109.388057c0 3.650519 2.969843 6.620593 6.618971 6.620593s6.618971-2.970074 6.618971-6.620593v-132.50553717c0-.03477568-.002318-.06931952-.002318-.1040952l.016228-.0275887z" fill="#75c9e1"/></svg>

<?xml version="1.0" encoding="UTF-8" standalone="no"?>
<svg width="512px" height="147px" viewBox="0 0 512 147" version="1.1" xmlns="http://www.w3.org/2000/svg" xmlns:xlink="http://www.w3.org/1999/xlink" preserveAspectRatio="xMidYMid">
    <g>
        <path d="M78.2204706,2.3303813 L0,2.3303813 L7.79948923,14.8496257 L77.7785876,14.8496257 C86.3255221,14.8496257 94.3730778,18.2792031 100.438884,24.5065998 C106.480346,30.7091899 109.807683,38.8888932 109.807683,47.5387637 C109.807683,56.0384033 106.624318,63.6925301 100.602561,69.6732514 C94.867588,75.3692757 86.874746,79.1143845 78.0834544,80.2279017 L69.5186684,80.2279017 L45.8976363,80.0391857 L52.7155241,91.8455286 L63.0707939,91.8455286 L63.632537,92.7471461 L63.7148394,92.7471461 L94.3529079,144.474577 L94.5495064,144.671176 C95.8786329,145.998911 97.5436924,146.64458 99.640434,146.64458 C103.228357,146.64458 106.259405,143.511986 106.259405,139.804435 C106.259405,138.333656 105.779732,137.667586 105.199906,137.007312 C104.964127,136.738843 104.670852,136.404765 104.227578,135.649901 L79.0175291,92.7404228 C90.7390194,92.537101 101.700082,87.8662636 109.957451,79.5356339 C118.397508,71.0209249 123.045625,59.6571604 123.045625,47.5387637 C123.045625,22.6106298 102.937168,2.3303813 78.2204706,2.3303813 Z M183.50407,3.60270747 C182.501835,1.66361562 180.329282,0.462 177.813146,0.462 C175.533252,0.462 173.264951,1.69097249 172.168821,3.52017319 L171.486986,4.7039373 C170.591165,6.25933749 171.092398,8.51651088 171.986365,10.0631012 L182.696579,28.5936694 L223.694785,99.8390662 L221.910098,99.8390662 L221.965275,99.9359744 L169.212889,99.9359744 L176.837804,113.254828 L231.412436,113.254828 L247.899585,141.790358 L247.938998,141.855969 C248.956766,143.483007 250.660774,146.20571 254.224122,146.20571 C257.875568,146.20571 260.845411,143.235636 260.845411,139.585117 C260.845411,138.329947 260.530112,137.258624 259.855464,136.221381 L183.50407,3.60270747 Z M504.351669,132.966146 L433.965695,132.966146 L433.965695,7.07957983 C433.965695,3.43068378 430.998171,0.462 427.346724,0.462 C423.697596,0.462 420.727754,3.43068378 420.727754,7.07957983 L420.727754,139.585117 C420.727754,143.235636 423.697596,146.20571 427.346724,146.20571 L512,146.20571 L504.351669,132.966146 Z M366.199489,6.91798884 C366.113709,3.34374458 363.18096,0.462 359.585155,0.462 C359.418232,0.462 359.253627,0.470114325 359.093659,0.482865407 C358.929054,0.470346163 358.764449,0.462 358.597526,0.462 C356.079767,0.462 353.905128,1.665934 352.903588,3.60873525 L309.199833,80.4249639 L265.49376,3.60850341 C264.494539,1.66570216 262.3199,0.462 259.799822,0.462 C257.520856,0.462 255.253482,1.69097249 254.156889,3.52017319 L253.475286,4.70416913 C252.58271,6.25446889 253.071888,8.51048309 253.95519,10.0584645 L302.687508,95.5600348 L302.733875,95.637005 C303.749325,97.2640431 305.453334,99.9867469 309.016681,99.9867469 C309.079278,99.9867469 309.139556,99.9839648 309.199833,99.9821101 C309.260111,99.9839648 309.320389,99.9867469 309.382985,99.9867469 C312.946333,99.9867469 314.648023,97.2640431 315.665791,95.637005 L352.966184,30.19706 L352.966184,139.585117 C352.966184,143.235636 355.936027,146.20571 359.585155,146.20571 C363.234283,146.20571 366.204126,143.235636 366.204126,139.585117 L366.204126,7.07957983 C366.204126,7.04480415 366.201808,7.01026031 366.201808,6.97548463 L366.218036,6.94789593 L366.199489,6.91798884 Z" fill="#75C9E1"></path>
    </g>
</svg>
